static/img/kroki/383dc48bfccab8dfe5abb402aac6f857.svg

<?xml version="1.0" encoding="us-ascii" standalone="no"?><svg xmlns="http://www.w3.org/2000/svg" xmlns:xlink="http://www.w3.org/1999/xlink" contentStyleType="text/css" height="535px" preserveAspectRatio="none" style="width:442px;height:535px;" version="1.1" viewBox="0 0 442 535" width="442px" zoomAndPan="magnify"><defs/><g><!--class aws_resource--><g id="elem_aws_resource"><rect codeLine="23" fill="#3D176E" height="39.7891" id="aws_resource" rx="2.5" ry="2.5" style="stroke:#000D19;stroke-width:0.5;" width="155" x="143.5" y="167.79"/><ellipse cx="158.5" cy="187.6845" fill="#ADD1B2" rx="11" ry="11" style="stroke:#181818;stroke-width:1.0;"/><path d="M161.4688,193.3252 Q160.8906,193.622 160.25,193.7627 Q159.6094,193.9189 158.9063,193.9189 Q156.4063,193.9189 155.0781,192.2783 Q153.7656,190.622 153.7656,187.497 Q153.7656,184.372 155.0781,182.7158 Q156.4063,181.0595 158.9063,181.0595 Q159.6094,181.0595 160.25,181.2158 Q160.9063,181.372 161.4688,181.6689 L161.4688,184.3877 Q160.8438,183.8095 160.25,183.5439 Q159.6563,183.2627 159.0313,183.2627 Q157.6875,183.2627 157,184.3408 Q156.3125,185.4033 156.3125,187.497 Q156.3125,189.5908 157,190.6689 Q157.6875,191.7314 159.0313,191.7314 Q159.6563,191.7314 160.25,191.4658 Q160.8438,191.1845 161.4688,190.6064 L161.4688,193.3252 Z " fill="#000000"/><text fill="#D9B8FF" font-family="Helvetica" font-size="17" lengthAdjust="spacing" textLength="113" x="177.5" y="193.5698">aws_resource</text></g><!--class aws_sagemaker_hyper_parameter_tuning_job--><g id="elem_aws_sagemaker_hyper_parameter_tuning_job"><rect codeLine="26" fill="#3D176E" height="39.7891" id="aws_sagemaker_hyper_parameter_tuning_job" rx="2.5" ry="2.5" style="stroke:#000D19;stroke-width:0.5;" width="428" x="7" y="489.37"/><ellipse cx="22" cy="509.2645" fill="#ADD1B2" rx="11" ry="11" style="stroke:#181818;stroke-width:1.0;"/><path d="M24.9688,514.9052 Q24.3906,515.202 23.75,515.3427 Q23.1094,515.4989 22.4063,515.4989 Q19.9063,515.4989 18.5781,513.8583 Q17.2656,512.202 17.2656,509.077 Q17.2656,505.952 18.5781,504.2958 Q19.9063,502.6395 22.4063,502.6395 Q23.1094,502.6395 23.75,502.7958 Q24.4063,502.952 24.9688,503.2489 L24.9688,505.9677 Q24.3438,505.3895 23.75,505.1239 Q23.1563,504.8427 22.5313,504.8427 Q21.1875,504.8427 20.5,505.9208 Q19.8125,506.9833 19.8125,509.077 Q19.8125,511.1708 20.5,512.2489 Q21.1875,513.3114 22.5313,513.3114 Q23.1563,513.3114 23.75,513.0458 Q24.3438,512.7645 24.9688,512.1864 L24.9688,514.9052 Z " fill="#000000"/><text fill="#D9B8FF" font-family="Helvetica" font-size="17" lengthAdjust="spacing" textLength="386" x="41" y="515.1498">aws_sagemaker_hyper_parameter_tuning_job</text></g><!--class aws_sagemaker_job--><g id="elem_aws_sagemaker_job"><rect codeLine="29" fill="#3D176E" height="39.7891" id="aws_sagemaker_job" rx="2.5" ry="2.5" style="stroke:#000D19;stroke-width:0.5;" width="210" x="116" y="328.58"/><ellipse cx="131" cy="348.4745" fill="#ADD1B2" rx="11" ry="11" style="stroke:#181818;stroke-width:1.0;"/><path d="M133.9688,354.1152 Q133.3906,354.412 132.75,354.5527 Q132.1094,354.7089 131.4063,354.7089 Q128.9063,354.7089 127.5781,353.0683 Q126.2656,351.412 126.2656,348.287 Q126.2656,345.162 127.5781,343.5058 Q128.9063,341.8495 131.4063,341.8495 Q132.1094,341.8495 132.75,342.0058 Q133.4063,342.162 133.9688,342.4589 L133.9688,345.1777 Q133.3438,344.5995 132.75,344.3339 Q132.1563,344.0527 131.5313,344.0527 Q130.1875,344.0527 129.5,345.1308 Q128.8125,346.1933 128.8125,348.287 Q128.8125,350.3808 129.5,351.4589 Q130.1875,352.5214 131.5313,352.5214 Q132.1563,352.5214 132.75,352.2558 Q133.3438,351.9745 133.9688,351.3964 L133.9688,354.1152 Z " fill="#000000"/><text fill="#D9B8FF" font-family="Helvetica" font-size="17" lengthAdjust="spacing" textLength="168" x="150" y="354.3598">aws_sagemaker_job</text></g><!--class resource--><g id="elem_resource"><rect codeLine="32" fill="#3D176E" height="39.7891" id="resource" rx="2.5" ry="2.5" style="stroke:#000D19;stroke-width:0.5;" width="113" x="164.5" y="7"/><ellipse cx="179.5" cy="26.8945" fill="#ADD1B2" rx="11" ry="11" style="stroke:#181818;stroke-width:1.0;"/><path d="M182.4688,32.5352 Q181.8906,32.832 181.25,32.9727 Q180.6094,33.1289 179.9063,33.1289 Q177.4063,33.1289 176.0781,31.4883 Q174.7656,29.832 174.7656,26.707 Q174.7656,23.582 176.0781,21.9258 Q177.4063,20.2695 179.9063,20.2695 Q180.6094,20.2695 181.25,20.4258 Q181.9063,20.582 182.4688,20.8789 L182.4688,23.5977 Q181.8438,23.0195 181.25,22.7539 Q180.6563,22.4727 180.0313,22.4727 Q178.6875,22.4727 178,23.5508 Q177.3125,24.6133 177.3125,26.707 Q177.3125,28.8008 178,29.8789 Q178.6875,30.9414 180.0313,30.9414 Q180.6563,30.9414 181.25,30.6758 Q181.8438,30.3945 182.4688,29.8164 L182.4688,32.5352 Z " fill="#000000"/><text fill="#D9B8FF" font-family="Helvetica" font-size="17" lengthAdjust="spacing" textLength="71" x="198.5" y="32.7798">resource</text></g><!--reverse link resource to aws_resource--><g id="link_resource_aws_resource"><path codeLine="35" d="M221,65.05 C221,95.57 221,136.9 221,167.47 " fill="none" id="resource-backto-aws_resource" style="stroke:#FFAF37;stroke-width:2.0;"/><polygon fill="none" points="221,47.05,215,65.05,227,65.05,221,47.05" style="stroke:#FFAF37;stroke-width:2.0;"/></g><!--reverse link aws_sagemaker_job to aws_sagemaker_hyper_parameter_tuning_job--><g id="link_aws_sagemaker_job_aws_sagemaker_hyper_parameter_tuning_job"><path codeLine="36" d="M221,386.63 C221,417.15 221,458.48 221,489.04 " fill="none" id="aws_sagemaker_job-backto-aws_sagemaker_hyper_parameter_tuning_job" style="stroke:#FFAF37;stroke-width:2.0;"/><polygon fill="none" points="221,368.63,215,386.63,227,386.63,221,368.63" style="stroke:#FFAF37;stroke-width:2.0;"/></g><!--reverse link aws_resource to aws_sagemaker_job--><g id="link_aws_resource_aws_sagemaker_job"><path codeLine="37" d="M221,225.84 C221,256.36 221,297.69 221,328.25 " fill="none" id="aws_resource-backto-aws_sagemaker_job" style="stroke:#FFAF37;stroke-width:2.0;"/><polygon fill="none" points="221,207.84,215,225.84,227,225.84,221,207.84" style="stroke:#FFAF37;stroke-width:2.0;"/></g><!--SRC=[ZP1BRuCm48Jl_0fBEKU2HYr1wYMDLBMNg6fwHmjU1nUmqTeKfO__NaZQr40UFNhdy-pCPf8ZmxAoMrPYcI0Pp-HILK1GiWMHRfQwqCGcGe2OXKFnNYjx4LX1YUm1YpUqCeKXyPB9D5Te3Bjof3j8ymtfMl6zlILGffLGMOTQ5c3CmbgIIMtH2SEZP2x4a1oQJcOy26zmX6dYI3-8x_iyY8R8nLLdUn-8jNn75hX7MscBevYZ5JlgRCgES4AEYlxg9pC-0UTIRTYrCtlUPoA5r9klC-2wwMW1XN7N68k4scuhN8vQOJJd8ZmAFvw2lRGx7OF6n8H6rvGY-_2yBsTkO8Cbv4XnrZfHlFF6rZgsjMepngywEVrd8FQN75wtdzFfj9V26zlyGV-9vFKw7VlRGTy0]--></g></svg>

<svg xmlns="http://www.w3.org/2000/svg" width="442" height="535" viewBox="0 0 442 535"><rect width="155" height="39.789" x="143.5" y="167.79" fill="#3D176E" rx="2.5" ry="2.5" style="stroke:#000d19;stroke-width:.5"/><circle cx="158.5" cy="187.685" r="11" fill="#ADD1B2" style="stroke:#181818;stroke-width:1"/><path d="M161.469 193.325q-.578.297-1.219.438-.64.156-1.344.156-2.5 0-3.828-1.64-1.312-1.657-1.312-4.782t1.312-4.781q1.328-1.656 3.828-1.656.703 0 1.344.156.656.156 1.219.453v2.719q-.625-.578-1.219-.844-.594-.281-1.219-.281-1.344 0-2.031 1.078-.687 1.062-.687 3.156t.687 3.172q.688 1.062 2.031 1.062.625 0 1.219-.265.594-.281 1.219-.86z"/><text x="177.5" y="193.57" fill="#D9B8FF" font-family="Helvetica" font-size="17" textLength="113">aws_resource</text><rect width="428" height="39.789" x="7" y="489.37" fill="#3D176E" rx="2.5" ry="2.5" style="stroke:#000d19;stroke-width:.5"/><circle cx="22" cy="509.264" r="11" fill="#ADD1B2" style="stroke:#181818;stroke-width:1"/><path d="M24.969 514.905q-.578.297-1.219.438-.64.156-1.344.156-2.5 0-3.828-1.64-1.312-1.657-1.312-4.782t1.312-4.781q1.328-1.656 3.828-1.656.703 0 1.344.156.656.156 1.219.453v2.719q-.625-.579-1.219-.844-.594-.281-1.219-.281-1.343 0-2.031 1.078-.687 1.062-.687 3.156t.687 3.172q.688 1.062 2.031 1.062.625 0 1.219-.265.594-.282 1.219-.86z"/><text x="41" y="515.15" fill="#D9B8FF" font-family="Helvetica" font-size="17" textLength="386">aws_sagemaker_hyper_parameter_tuning_job</text><rect width="210" height="39.789" x="116" y="328.58" fill="#3D176E" rx="2.5" ry="2.5" style="stroke:#000d19;stroke-width:.5"/><circle cx="131" cy="348.474" r="11" fill="#ADD1B2" style="stroke:#181818;stroke-width:1"/><path d="M133.969 354.115q-.578.297-1.219.438-.64.156-1.344.156-2.5 0-3.828-1.64-1.312-1.657-1.312-4.782t1.312-4.781q1.328-1.656 3.828-1.656.703 0 1.344.156.656.156 1.219.453v2.719q-.625-.579-1.219-.844-.594-.281-1.219-.281-1.344 0-2.031 1.078-.687 1.062-.687 3.156t.687 3.172q.688 1.062 2.031 1.062.625 0 1.219-.265.594-.281 1.219-.86z"/><text x="150" y="354.36" fill="#D9B8FF" font-family="Helvetica" font-size="17" textLength="168">aws_sagemaker_job</text><rect width="113" height="39.789" x="164.5" y="7" fill="#3D176E" rx="2.5" ry="2.5" style="stroke:#000d19;stroke-width:.5"/><circle cx="179.5" cy="26.895" r="11" fill="#ADD1B2" style="stroke:#181818;stroke-width:1"/><path d="M182.469 32.535q-.578.297-1.219.438-.64.156-1.344.156-2.5 0-3.828-1.64-1.312-1.657-1.312-4.782t1.312-4.781q1.328-1.656 3.828-1.656.703 0 1.344.156.656.156 1.219.453v2.719q-.625-.578-1.219-.844-.594-.281-1.219-.281-1.344 0-2.031 1.078-.687 1.062-.687 3.156t.687 3.172q.688 1.062 2.031 1.062.625 0 1.219-.265.594-.281 1.219-.86z"/><text x="198.5" y="32.78" fill="#D9B8FF" font-family="Helvetica" font-size="17" textLength="71">resource</text><path fill="none" d="M221 65.05v102.42m0-120.42-6 18h12zm0 339.58v102.41m0-120.41-6 18h12zm0-142.79v102.41m0-120.41-6 18h12z" style="stroke:#ffaf37;stroke-width:2"/></svg>
